svgs/light/face-dizzy.svg

<svg xmlns="http://www.w3.org/2000/svg" viewBox="0 0 512 512"><!--! Font Awesome Pro 6.4.2 by @fontawesome - https://fontawesome.com License - https://fontawesome.com/license (Commercial License) Copyright 2023 Fonticons, Inc. --><path d="M480 256A224 224 0 1 0 32 256a224 224 0 1 0 448 0zM0 256a256 256 0 1 1 512 0A256 256 0 1 1 0 256zm208 96a48 48 0 1 0 96 0 48 48 0 1 0 -96 0zm48 80a80 80 0 1 1 0-160 80 80 0 1 1 0 160zM100.7 132.7c6.2-6.2 16.4-6.2 22.6 0L160 169.4l36.7-36.7c6.2-6.2 16.4-6.2 22.6 0s6.2 16.4 0 22.6L182.6 192l36.7 36.7c6.2 6.2 6.2 16.4 0 22.6s-16.4 6.2-22.6 0L160 214.6l-36.7 36.7c-6.2 6.2-16.4 6.2-22.6 0s-6.2-16.4 0-22.6L137.4 192l-36.7-36.7c-6.2-6.2-6.2-16.4 0-22.6zm192 0c6.2-6.2 16.4-6.2 22.6 0L352 169.4l36.7-36.7c6.2-6.2 16.4-6.2 22.6 0s6.2 16.4 0 22.6L374.6 192l36.7 36.7c6.2 6.2 6.2 16.4 0 22.6s-16.4 6.2-22.6 0L352 214.6l-36.7 36.7c-6.2 6.2-16.4 6.2-22.6 0s-6.2-16.4 0-22.6L329.4 192l-36.7-36.7c-6.2-6.2-6.2-16.4 0-22.6z"/></svg>

<svg xmlns="http://www.w3.org/2000/svg" viewBox="0 0 512 512"><!--! Font Awesome Pro 6.1.1 by @fontawesome - https://fontawesome.com License - https://fontawesome.com/license (Commercial License) Copyright 2022 Fonticons, Inc. --><path d="M336 352C336 396.2 300.2 432 256 432C211.8 432 176 396.2 176 352C176 307.8 211.8 272 256 272C300.2 272 336 307.8 336 352zM256 400C282.5 400 304 378.5 304 352C304 325.5 282.5 304 256 304C229.5 304 208 325.5 208 352C208 378.5 229.5 400 256 400zM100.7 132.7C106.9 126.4 117.1 126.4 123.3 132.7L160 169.4L196.7 132.7C202.9 126.4 213.1 126.4 219.3 132.7C225.6 138.9 225.6 149.1 219.3 155.3L182.6 192L219.3 228.7C225.6 234.9 225.6 245.1 219.3 251.3C213.1 257.6 202.9 257.6 196.7 251.3L160 214.6L123.3 251.3C117.1 257.6 106.9 257.6 100.7 251.3C94.44 245.1 94.44 234.9 100.7 228.7L137.4 192L100.7 155.3C94.44 149.1 94.44 138.9 100.7 132.7zM292.7 132.7C298.9 126.4 309.1 126.4 315.3 132.7L352 169.4L388.7 132.7C394.9 126.4 405.1 126.4 411.3 132.7C417.6 138.9 417.6 149.1 411.3 155.3L374.6 192L411.3 228.7C417.6 234.9 417.6 245.1 411.3 251.3C405.1 257.6 394.9 257.6 388.7 251.3L352 214.6L315.3 251.3C309.1 257.6 298.9 257.6 292.7 251.3C286.4 245.1 286.4 234.9 292.7 228.7L329.4 192L292.7 155.3C286.4 149.1 286.4 138.9 292.7 132.7zM512 256C512 397.4 397.4 512 256 512C114.6 512 0 397.4 0 256C0 114.6 114.6 0 256 0C397.4 0 512 114.6 512 256zM256 32C132.3 32 32 132.3 32 256C32 379.7 132.3 480 256 480C379.7 480 480 379.7 480 256C480 132.3 379.7 32 256 32z"/></svg>
